icons/desktop/16/svg/extension-warning-16.svg

<!-- This Source Code Form is subject to the terms of the Mozilla Public
   - License, v. 2.0. If a copy of the MPL was not distributed with this
   - file, You can obtain one at http://mozilla.org/MPL/2.0/. -->
<svg xmlns="http://www.w3.org/2000/svg" width="20" height="20" fill="context-fill" fill-opacity="context-fill-opacity" viewBox="0 0 20 20">
    <path d="m15.41 10.493 3.311 5.773c.445.775-.127 1.734-1.034 1.734h-6.623c-.908 0-1.48-.959-1.034-1.734l3.311-5.773c.454-.791 1.615-.791 2.069 0M15 12.5h-1.25v2.25H15zm0 3.25h-1.25V17H15z" />
    <path d="m8.945 15.644.082-.144H3.5A.5.5 0 0 1 3 15v-1.5h1.25A2.75 2.75 0 0 0 7 10.75 2.75 2.75 0 0 0 4.25 8H3V6.5c0-.275.225-.5.5-.5h2.75A.75.75 0 0 0 7 5.25v-1.5c0-.689.561-1.25 1.25-1.25s1.25.561 1.25 1.25v1.5c0 .414.336.75.75.75H13c.275 0 .5.225.5.5v2.328c.276-.105.565-.178.875-.178q.324.002.625.081V6.5c0-1.103-.897-2-2-2h-2v-.75A2.75 2.75 0 0 0 8.25 1 2.75 2.75 0 0 0 5.5 3.75v.75h-2c-1.103 0-2 .897-2 2v2.25c0 .414.336.75.75.75h2c.689 0 1.25.561 1.25 1.25S4.939 12 4.25 12h-2a.75.75 0 0 0-.75.75V15c0 1.103.897 2 2 2h5.145a2.36 2.36 0 0 1 .3-1.356" />
</svg>

<svg width="20" height="20" viewBox="0 0 20 20" fill="none" xmlns="http://www.w3.org/2000/svg">
<path fill-rule="evenodd" clip-rule="evenodd" d="M15.41 10.493L18.721 16.266C19.166 17.041 18.594 18 17.687 18H11.064C10.156 18 9.58401 17.041 10.03 16.266L13.341 10.493C13.795 9.702 14.956 9.702 15.41 10.493ZM15 12.5H13.75V14.75H15V12.5ZM15 15.75H13.75V17H15V15.75Z" fill="black"/>
<path d="M8.945 15.644L9.027 15.5H3.5C3.225 15.5 3 15.275 3 15V13.5H4.25C5.767 13.5 7 12.267 7 10.75C7 9.233 5.767 8 4.25 8H3V6.5C3 6.225 3.225 6 3.5 6H6.25C6.664 6 7 5.664 7 5.25V3.75C7 3.061 7.561 2.5 8.25 2.5C8.939 2.5 9.5 3.061 9.5 3.75V5.25C9.5 5.664 9.836 6 10.25 6H13C13.275 6 13.5 6.225 13.5 6.5V8.828C13.776 8.723 14.065 8.65 14.375 8.65C14.59 8.65 14.8 8.679 15 8.731V6.5C15 5.397 14.103 4.5 13 4.5H11V3.75C11 2.233 9.767 1 8.25 1C6.733 1 5.5 2.233 5.5 3.75V4.5H3.5C2.397 4.5 1.5 5.397 1.5 6.5V8.75C1.5 9.164 1.836 9.5 2.25 9.5H4.25C4.939 9.5 5.5 10.061 5.5 10.75C5.5 11.439 4.939 12 4.25 12H2.25C1.836 12 1.5 12.336 1.5 12.75V15C1.5 16.103 2.397 17 3.5 17H8.645C8.612 16.536 8.702 16.068 8.945 15.644Z" fill="black"/>
</svg>
